src/assets/images/chat.svg

<svg fill="none" height="26" viewBox="0 0 26 26" width="26" xmlns="http://www.w3.org/2000/svg"><path d="m14.263.438232h-8.53446c-2.94117 0-5.334009 2.341928-5.334009 5.220518v13.42095c0 .8279.464059 1.586 1.209749 1.9775.33925.1785.71156.2662 1.08281.2662.44379 0 .88651-.1263 1.27056-.3758l4.22774-2.7596h6.07761c2.9411 0 5.334-2.3419 5.334-5.2205v-7.30875c0-2.87859-2.3929-5.220518-5.334-5.220518zm11.7348 9.396938v13.42093c0 .828-.4641 1.586-1.2098 1.9775-.3392.1786-.7115.2663-1.0828.2673-.4438 0-.8865-.1263-1.2695-.3759l-4.2288-2.7606h-6.0775c-1.5469 0-2.93055-.6588-3.90561-1.6914l.60701-.3968h5.4322c4.1167 0 7.4676-3.2795 7.4676-7.3087v-7.30875c0-.32158-.0288-.63481-.0694-.94596 2.4654.45941 4.3366 2.5779 4.3366 5.12238z" fill="#f7f7fd"/></svg>

<svg width="26" height="26" viewBox="0 0 26 26" fill="none" xmlns="http://www.w3.org/2000/svg">
<g clipPath="url(#clip0_552_22746)">
<path d="M14.263 0.438232H5.72854C2.78737 0.438232 0.394531 2.78016 0.394531 5.65875V19.0797C0.394531 19.9076 0.85859 20.6657 1.60428 21.0572C1.94353 21.2357 2.31584 21.3234 2.68709 21.3234C3.13088 21.3234 3.5736 21.1971 3.95765 20.9476L8.18539 18.188H14.263C17.2041 18.188 19.597 15.8461 19.597 12.9675V5.65875C19.597 2.78016 17.2041 0.438232 14.263 0.438232ZM25.9978 9.83517V23.2561C25.9978 24.0841 25.5337 24.8421 24.788 25.2336C24.4488 25.4122 24.0765 25.4999 23.7052 25.5009C23.2614 25.5009 22.8187 25.3746 22.4357 25.125L18.2069 22.3644H12.1294C10.5825 22.3644 9.19885 21.7056 8.22379 20.673L8.8308 20.2762H14.263C18.3797 20.2762 21.7306 16.9967 21.7306 12.9675V5.65875C21.7306 5.33717 21.7018 5.02394 21.6612 4.71279C24.1266 5.1722 25.9978 7.29069 25.9978 9.83517Z" fill="#F7F7FD"/>
</g>
<defs>
<clipPath id="clip0_552_22746">
<rect width="25.6032" height="25.0585" fill="white" transform="translate(0.394531 0.442383)"/>
</clipPath>
</defs>
</svg>
